X:120
T:Allistrum's Polka
R:polka
H:Also in G #115
H:Cf. first two parts of Allistrum's March, march#19
D:M\'airt\'in O Connor: Connachtman's Rambles
Z:id:hn-polka-120
M:2/4
L:1/8
K:D
FE E>E | FD D>E | FE d>e | dB BA |
FE E>E | FD D>D | FE dd | B2 BA :|
|: Fd d>e | fe ef/e/ | d2 d>e | dB BA |
Fd d>e | fe ef | de/d/ cA | B2 BA :|

